X:82
T:Up to your knees in Sand
M:4/4
L:1/8
R:Reel
K:G
G2 GF GABc|dBeB dBAF|DFAF BFAF|ABAF GFEF|
G2 GF GABc|dBeB dBAd|(3Bcd ec dBAF|DEFD E3 F||
GBBA GBEG|FAAG FADF|GBBA GBdB|AGFA E3 F|
GBBA GBEG|FAAG FADF|G2 GF GBdB|AGFG E3 F||
